X:1
T:Christos, CMD
T:Irvin James Morgan, 1895
T:Christos, CMD
T:Public Domain
C:Irvin James Morgan, 1895
Z:Public Domain
%%score ( 1 2 ) ( 3 4 )
L:1/8
M:4/4
K:F
V:1 treble 
V:2 treble 
V:3 bass 
V:4 bass 
V:1
 [Ac]2 | F2 z F [DF]2 [EG]2 | [FA]2 (FG) [Ac]2 F2 | [Bd]3 [Ac] [GB]2 [FA]2 | [FG]6 [Gc]2 | %5
 F2 z F [DF]2 [EG]2 | [FA]2 [Ac]2 [Ad]2 [_EA]2 | [Ec]2 G2 [Fd]2 G2 | (E2 G2 B2) [Ac]2 | %9
 [GB]2 [^FA]2 G2 (G=F) | [EA]2 [EG]2 F2 z G | [FA]3 [FA] [FB]2 [F=B]2 | (E4 F2) [Bc]2 | %13
 [Af]2 [Ac]2 [FA]2 F2 | B2 z c [GB]4 | [Gc]4 [FA]2 [Ec]2 | (F2 [DB]2) [EG]3 F | F6 |] %18
V:2
 x2 | c3 C2 x3 | x2 B2 x4 | x8 | x8 | c3 C2 x3 | x8 | x8 | c6 x2 | x6 B2 | x6 F2 | x8 | c6 x2 | %13
 x8 | d3 A2 x3 | x8 | F2 x3 F x2 | F6 |] %18
V:3
 [F,C]2 | [F,A,]2 [F,A,]2 [F,B,]2 [F,B,]2 | [F,C]2 [F,D]2 [F,_E]2 [CE]2 | %3
 [B,D]2 [^F,D]2 [G,D]2 [=B,,D]2 | (C,2 E,2 G,2) [E,B,]2 | [F,A,]2 [F,A,]2 [F,B,]2 [F,B,]2 | %6
 [F,C]2 [F,_E]2 [^F,D]2 [F,C]2 | [G,C]2 G,2 [G,=B,]2 G,2 | (C,2 E,4) [^F,_E]2 | %9
 [G,D]2 [D,C]2 [G,,B,]2 [G,D]2 | C2 [C,B,]2 [F,A,]2 (A,B,) | [F,C]2 [_E,C]2 [D,B,]2 [_D,G,]2 | %12
 ([C,G,]2 [B,C]2 [A,D]2) [G,E]2 | [F,F]2 [F,F]2 [A,C]2 [C_E]2 | [B,D]2 [^F,D]2 (G,2 =F,2) | %15
 [E,C]4 [F,C]2 [A,,C]2 | ([D,A,]2 [G,,B,]2) [C,B,]3 [F,,F,A,] | [F,,F,A,]6 |] %18
V:4
 x2 | x8 | x8 | x8 | D6 x2 | x8 | x8 | x8 | C6 x2 | x8 | x6 F,2 | x8 | x8 | x8 | x4 D4 | x8 | x8 | %17
 x6 |] %18

